X:1
T:Title
%%score 1 { 2 | 3 }
L:1/8
Q:1/4=95
M:3/4
K:Bb
V:1 treble nm="Grand Piano, Soprano"
V:2 bass nm="Choir Pad, From the Cyber Hymnal™"
V:3 bass 
V:1
 [B,D][CE] [DF]3 [DF] | [EG][DF] [DB]2 [DF]2 | [DF][DF] [EG]3 [GB] | [FA][EG] [DF]4 | %4
w: By~Lizzie~M.~Wallace,~1902 * * *||||
 [B,D][B,D] [CE]3 [A,C] | [B,D][CE] [EG]2 [DF]2 | [B,D][B,D] [A,C]3 [CF] | [CF][C=E] [CF]4 | %8
w: ||||
 [DF][DB] [Fd]3 [FB] | [EA][Ec] [DB]2 [DF]2 | [DF][DF] [EG]3 [FB] | [Fe][Fd] [Fc]4 | %12
w: ||||
 [Fd][Fe] [Ff]3 [Fd] | [Fe][Fd] [Ec]2 [EG]2 | [EA][EB] [DF][DB] [Fd]2 | [Ec]2 [DB]4- | [DB]4 z2 |] %17
w: |||||
V:2
 F,F, B,3 B, | B,B, F,2 B,2 | B,B, B,3 G, | A,B, B,4 | F,G, F,3 F, | F,A, B,2 B,2 | F,F, F,3 A, | %7
 G,B, A,4 | B,B, B,3 D | CA, B,2 B,2 | B,B, B,3 B, | A,B, A,4 | B,C D3 B, | A,B, G,2 B,2 | %14
 A,G, B,B, B,2 | A,2 B,4- | B,4 z2 |] %17
V:3
 B,,B,, B,,3 B,, | B,,B,, B,,2 B,,2 | B,,B,, E,3 E, | E,E, B,,4 | B,,B,, F,,3 F,, | %5
 F,,F,, B,,2 B,,2 | B,,B,, C,3 C, | C,C, F,4 | B,,B,, B,,3 B,, | F,F, B,,2 B,,2 | B,,B,, E,3 D, | %11
 C,B,, F,4 | B,,B,, B,,3 B,, | C,D, E,2 E,2 | E,E, F,F, F,2 | F,2 B,,4- | B,,4 z2 |] %17

